X:1
T:Cat in the Hopper
M:12/8
L:1/8
Q:120
R:slide
K:GDorian
|: GF | DGA B2c AFF F2A | G2G gfe fdd d2e | fag fed {e}dcA B2c | ded B2c dBG :| 
|: g | gdg gab aff fga | ~g3 gfe fdd d2e | fag fed {e}dcA B2c | ded d2c dBG G2 :|
